X:1
T:Title
%%score { ( 1 4 ) | ( 2 3 ) }
L:1/8
M:6/4
K:Ab
V:1 treble nm="Grand Piano"
V:4 treble 
V:2 bass 
V:3 bass 
V:1
 z6 z4[Q:1/4=156] [CE]2 | [CE]4 [CA]2 [CA]4 [Ec]2 | B2 A2 G2 [CA]4 Bc | d4 d2 c4 c2 | %4
[M:5/4] B2- B2- B6 |[M:1/4] E2 |[M:6/4] [CE]4 [CE]2 [DF]2 [EG]2 [EA]2 | B2 c2 d2 c4 [_Ge]2 | %8
 [Fd]2 [CFc]2 [DFB]2 [CEA]4 [DEG]2 |[M:5/4] [CEA]2- [CEA]2- [CEA]6 |[M:1/4] ed | %11
[M:6/4] c2 c2 cd e2 d2 c2 | d12 | B2 B2 Bc d2 c2 B2 | c12 | [CE]2 [DF]2 [DG]2 [CA]2 [DB]2 [Ec]2 | %16
 B2 c2 d2 [Ec]4 [_Ge][Ge] | [Fd]2 [Fc]2 [FB][FB] [CEA]2 [CEA]2 [DEG]2 | %18
[M:5/4] [CEA]2- [CEA]2- [CEA]6 |] %19
V:2
 z6 z4 [A,,A,]2 | [A,,A,]4 [A,,A,]2 [A,,A,]4 [A,,A,]2 | %2
 [E,G,D]2 [E,A,C]2 [E,B,D]2 [A,,A,]4 [E,E]-[E,A,E] | [E,B,E]4 [E,B,E]2 [E,A,E]4 [E,A,E]2 | %4
[M:5/4] [E,G,E]2- [E,G,E]2- [E,G,E]6 |[M:1/4] [E,G,D]2 | %6
[M:6/4] [A,,A,]4 [A,,A,]2 [D,A,]2 [D,B,]2 [C,A,]2 | [E,G,E]2 [E,A,E]2 [E,B,E]2 [A,E]4 [C,A,]2 | %8
 [D,B,]2 D,2 D,2 E,4 E,2 |[M:5/4] A,,2- A,,2- A,,6 |[M:1/4][K:treble] [A,CE][A,B,E] | %11
[M:6/4] [A,E]2 [A,E]2 [A,E][A,B,E] [A,CA]2[K:bass] [A,B,E]2 [A,E]2 | %12
 [E,B,]4 [E,B,]2 [E,B,]4 [E,B,E][E,A,E] | %13
 [E,G,E]2 [E,G,E]2 [E,G,E][E,A,E] [E,B,E]2 [E,A,E]2 [E,G,E]2 | [A,E]4 A,2 A,4 [A,,A,]2 | %15
 [A,,A,]2 [A,,A,]2 [A,,E,]2 [A,,E,]2 [A,,E,]2 [A,,A,]2 | %16
 [E,G,E]2 [E,A,E]2 [E,B,E]2 [A,,A,]4 [C,A,][C,A,] | [D,B,]2 [D,C]2 [D,D][D,D] E,2 E,2 E,2 | %18
[M:5/4] A,,2- A,,2- A,,6 |] %19
V:3
 x12 | x12 | z6 z4 .G,2 | x12 |[M:5/4] x10 |[M:1/4] x2 |[M:6/4] x12 | x12 | x12 |[M:5/4] x10 | %10
[M:1/4][K:treble] x2 |[M:6/4] x8[K:bass] x4 | x12 | x12 | x12 | x12 | x12 | x12 |[M:5/4] x10 |] %19
V:4
 x12 | x12 | x12 | x12 |[M:5/4] x10 |[M:1/4] x2 |[M:6/4] x12 | x12 | x12 |[M:5/4] x10 |[M:1/4] x2 | %11
[M:6/4] x12 | G4 G2 G4 dc | x12 | z4 E2 E4 [CE]2 | x12 | x12 | x12 |[M:5/4] x10 |] %19

